packages/usa-icon/src/img/material-icons/person_add_alt.svg

<svg xmlns="http://www.w3.org/2000/svg" height="24" viewBox="0 0 24 24" width="24"><path fill="none" d="M0 0h24v24H0z"/><path d="M13 8c0-2.21-1.79-4-4-4S5 5.79 5 8s1.79 4 4 4 4-1.79 4-4zm-2 0c0 1.1-.9 2-2 2s-2-.9-2-2 .9-2 2-2 2 .9 2 2zM1 18v2h16v-2c0-2.66-5.33-4-8-4s-8 1.34-8 4zm2 0c.2-.71 3.3-2 6-2 2.69 0 5.78 1.28 6 2H3zm17-3v-3h3v-2h-3V7h-2v3h-3v2h3v3h2z"/></svg>

<svg xmlns="http://www.w3.org/2000/svg" enable-background="new 0 0 24 24" height="24" viewBox="0 0 24 24" width="24"><g><rect fill="none" height="24" width="24"/></g><g><path d="M13,8c0-2.21-1.79-4-4-4S5,5.79,5,8s1.79,4,4,4S13,10.21,13,8z M11,8c0,1.1-0.9,2-2,2S7,9.1,7,8s0.9-2,2-2S11,6.9,11,8z M1,18v2h16v-2c0-2.66-5.33-4-8-4S1,15.34,1,18z M3,18c0.2-0.71,3.3-2,6-2c2.69,0,5.78,1.28,6,2H3z M20,15v-3h3v-2h-3V7h-2v3h-3v2 h3v3H20z"/></g></svg>
